src/assets/1992.svg

<svg width="3149" height="3102" fill="none" xmlns="http://www.w3.org/2000/svg">
  <g filter="url(#filter0_d)">
    <path d="M1833.31 592.654c-58.83-58.572 111.7-184.416-88.75-241.272C1477.1 275.522 713.087.258 713.087.258L25.381 1294.01s190.184 215.76 255.077 286.84c64.892 71.08 615.432 323.48 720.372 363.99 104.94 40.51 92.61-4.76 103.35 9.53 10.73 14.3-26.24 60.77-10.74 97.71 15.51 36.94 233.05 202.34 377.37 267.9 144.32 65.56-165.55 603.64 414.19 696.05 579.74 92.41 507.62-399.32 549.01-471.71 41.4-72.39 166.8 38.24 231.69 0 64.89-38.25 56.19-184.82 131.44-238.61 75.25-53.8 98.81-28.28 199.71-62.07 100.91-33.79 146.69-251.92 118.3-302.84-28.39-50.91-108.11-137.15-123.02-166.11-14.64-28.45-21.35-46.25-38.32-91.31l-.94-2.48c-17.66-46.9 21.89-93.23 62.17-176.55 40.27-83.32 114.13-180.07 7.85-273.78-106.28-93.72-253.83 30.29-317.35-62.76-63.53-93.05 9.64-158.62-131.53-217.925-141.16-59.309-411.38 127.735-468.99 83.845-57.6-43.888 27.45-150.025-12.47-206.575-39.91-56.55-200.41-175.93-259.24-234.501z" fill="#fff"/>
  </g>
  <defs>
    <filter id="filter0_d" x=".381" y=".258" width="3148.06" height="3101.29" filterUnits="userSpaceOnUse" color-interpolation-filters="sRGB">
      <feFlood flood-opacity="0" result="BackgroundImageFix"/>
      <feColorMatrix in="SourceAlpha" values="0 0 0 0 0 0 0 0 0 0 0 0 0 0 0 0 0 0 127 0"/>
      <feOffset dy="49"/>
      <feGaussianBlur stdDeviation="12.5"/>
      <feColorMatrix values="0 0 0 0 0 0 0 0 0 0 0 0 0 0 0 0 0 0 0.25 0"/>
      <feBlend in2="BackgroundImageFix" result="effect1_dropShadow"/>
      <feBlend in="SourceGraphic" in2="effect1_dropShadow" result="shape"/>
    </filter>
  </defs>
</svg>

<svg width="3149" height="3102" viewBox="0 0 3149 3102" fill="none" xmlns="http://www.w3.org/2000/svg">
<g filter="url(#filter0_d)">
<path d="M1833.31 592.654C1774.48 534.082 1945.01 408.238 1744.56 351.382C1477.1 275.522 713.087 0.257812 713.087 0.257812L25.3809 1294.01C25.3809 1294.01 215.565 1509.77 280.458 1580.85C345.35 1651.93 895.89 1904.33 1000.83 1944.84C1105.77 1985.35 1093.44 1940.08 1104.18 1954.37C1114.91 1968.67 1077.94 2015.14 1093.44 2052.08C1108.95 2089.02 1326.49 2254.42 1470.81 2319.98C1615.13 2385.54 1305.26 2923.62 1885 3016.03C2464.74 3108.44 2392.62 2616.71 2434.01 2544.32C2475.41 2471.93 2600.81 2582.56 2665.7 2544.32C2730.59 2506.07 2721.89 2359.5 2797.14 2305.71C2872.39 2251.91 2895.95 2277.43 2996.85 2243.64C3097.76 2209.85 3143.54 1991.72 3115.15 1940.8C3086.76 1889.89 3007.04 1803.65 2992.13 1774.69C2977.49 1746.24 2970.78 1728.44 2953.81 1683.38L2952.87 1680.9C2935.21 1634 2974.76 1587.67 3015.04 1504.35C3055.31 1421.03 3129.17 1324.28 3022.89 1230.57C2916.61 1136.85 2769.06 1260.86 2705.54 1167.81C2642.01 1074.76 2715.18 1009.19 2574.01 949.885C2432.85 890.576 2162.63 1077.62 2105.02 1033.73C2047.42 989.842 2132.47 883.705 2092.55 827.155C2052.64 770.605 1892.14 651.225 1833.31 592.654Z" fill="white"/>
</g>
<defs>
<filter id="filter0_d" x="0.380859" y="0.257812" width="3148.06" height="3101.29" filterUnits="userSpaceOnUse" color-interpolation-filters="sRGB">
<feFlood flood-opacity="0" result="BackgroundImageFix"/>
<feColorMatrix in="SourceAlpha" type="matrix" values="0 0 0 0 0 0 0 0 0 0 0 0 0 0 0 0 0 0 127 0"/>
<feOffset dy="49"/>
<feGaussianBlur stdDeviation="12.5"/>
<feColorMatrix type="matrix" values="0 0 0 0 0 0 0 0 0 0 0 0 0 0 0 0 0 0 0.25 0"/>
<feBlend mode="normal" in2="BackgroundImageFix" result="effect1_dropShadow"/>
<feBlend mode="normal" in="SourceGraphic" in2="effect1_dropShadow" result="shape"/>
</filter>
</defs>
</svg>
